X:1
T:Maid in the Meadow
T:Michael Relihan's
M:4/4
L:1/8
S:Randal Bays
Z:Brendan Taaffe <laughingrock@HOTMAIL.COM> irtrad-l 2001-12-2
R:reel
K:D
|: d3 B =cAGc | Addc dfag | fded =cAGF | EG=cG ED D2 :|
|: fdd^c d2 cd | eaag efge | fddc d2 cd | eaag edde :|
P: Variation:
|: _f2 ed =cAGc | Addc dfag | fded =cAGF | EG=cG ED D2 :|
|: fdd^c d2 cd | eaag efge | fddc d2 cd | eaag edde :|
